X:1
T:La Cumparsita
T:La Cumparsita
T:TANGO
T:Gerardo Matos Rodriguez
T:Eugen Pîrvu
T:Eugen Pîrvu
C:Gerardo Matos Rodriguez
Z:Eugen Pîrvu
%%score { 1 | 2 }
L:1/8
Q:1/4=112
M:4/4
K:Bb
V:1 bass nm="Piano" snm="Pno."
V:2 bass 
V:1
 z2{/^F,} G,2 =F,2 E,2 |[K:treble] D2 [Dc]2 [DA]2 [D^F]2 | z D- (3DED ^C2 D2 | %3
 D2 [Dd]2 [DB]2 [DG]2 | z D- (3DED ^C2 D2 | D2 [Dc]2 [DA]2 [D^F]2 | z D- (3DED ^C2 D2 | %7
 D2 [Dd]2 [DB]2 [DG]2 | z D- (3DED ^C2 D2 || c2 [ceg]2 [ce^f]2 [ceg]2 | %10
 z [ce^f]- (3[cef][ceg][cf] [ceg]2 [cef]2 | B2 [Bdg]2 [Bd^f]2 [Bdg]2 | %12
 z [Bd^f]- (3[Bdf][Bdg]f [Bdg]2 [Bdf]2 | A2 [Ad]2 [Ac]2 [Ad]2 | z c BA G2 ^F2 | %15
 [B,DG]2 z E (3D/E/D/C B,A, | G,2 [A,C^F]2 [G,B,DG]2 z2 || GA B2 z G AB | (3A/B/A/-A G6 | %19
 z [DG] [DG]F [DF]EED | D4{D_D} C4 | z [CA] [CA]G [CG]^F [CF]2 | z [CE] [CE]D [CD]2 z2 | %23
 z C C2 z C B,(3A,/B,/A,/ | G,2{G,B,} D6 | [Bg][ca] [db]2 z [Bg]- (3[Bg][ca][db] | [ca]2 [Bg]6 | %27
 z [=Bg] (3[Bg][Bg]f [Bf]e[Be]d | c4 [c'e'g'a'c'']4 | c[ce] z [ceg] z [ce^f] [ceg]2 | %30
 B[Bd] z [Bdg] z [Bd^f] [dg]2 | z da^f (3d/f/d/c z ^F | [B,DG]2{/^F,} G,2 =F,2 E,2 || %33
 D2 [Dc]2 [DA]2 [D^F]2 | z D- (3DED ^C2 D2 | D2 [Dd]2 [DB]2 [DG]2 | z D- (3DED ^C2 D2 | %37
 D2 [Dc]2 [DA]2 [D^F]2 | z D- (3DED ^C2 D2 | D2 [Dd]2 [DB]2 [DG]2 | z D- (3DED ^C2 D2 || %41
 c2 [ceg]2 [ce^f]2 [ceg]2 | z [ce^f]- (3[cef][ceg]f [ceg]2 [cef]2 | B2 [Bdg]2 [Bd^f]2 [Bdg]2 | %44
 z [Bd^f]- (3[Bdf][Bdg]f [Bdg]2 [df]2 | A2 [Ad]2 [Ac]2 [Ad]2 | z c BA G2 ^F2 | %47
 [B,DG]2 z{/d} e dcBA | G2 [_G_Ac_g]2 [=GBd=g]2 z2 |] %49
V:2
 z2 G,,2 F,,2 E,,2 | [D,,D,]2 [D,^F,C]2 [D,F,C]2 F,A,,, | [D,,,D,,]2 [D,^F,C]2 [D,F,A,]2 [D,F,C]2 | %3
 [G,,G,]2 [D,G,B,]2 [D,G,B,]2 [D,G,B,]D,, | [G,,,G,,]2 [D,G,B,]2 [D,G,B,]2 [D,G,B,]2 | %5
 [D,,D,]2 [D,^F,C]2 [D,F,C]2 [D,F,]A,,, | [D,,,D,,]2 [D,^F,C]2 [D,F,A,]2 [D,F,C]2 | %7
 [G,,G,]2 [D,G,B,]2 [D,G,B,]2 [D,G,B,]D,, | [G,,,G,,]2 [D,G,B,]2 [D,G,B,]2 [D,G,B,]2 || %9
 [C,,C,]2 [CEG]2 [CE^F]2 GG,, | [C,,C,]2 [CEG]2 [CEG]2 [CEG]2 | [G,,,G,,]2 [B,DG]2 [B,D^F]2 B,D,, | %12
 [G,,,G,,]2 [B,DG]2 [B,DG]2 [B,DG]A,, | [D,,D,]2 [^F,CD]2 [F,CD]2 F,A,, | %14
 [D,,D,]2 [D,C]2 [D,^F,C]2 [F,C]2 | [G,,G,]2 z E, (3D,/E,/D,/C, B,,A,, | G,,2 D,,2 [G,,,G,,]2 z2 || %17
 G,,2 [G,B,D]2 D,,4 | G,2 [B,D]2 [B,D]2 [B,D]D, | [G,B,D]2 [G,B,]2 [G,B,]2 [G,B,]2 | %20
 [D,^F,A,]2 [D,F,A,]2 [D,F,A,]2 [D,F,A,]A,, | [D,^F,A,]2 [D,F,A,]2 [D,F,A,]2 [D,F,A,]A,, | %22
 [D,^F,A,]2 [D,F,A,]2 [D,F,A,]2 [D,F,A,]A,, | [D,^F,A,]2 [D,F,A,]2 [D,F,A,]2 [D,F,A,]2 | %24
 G,,4 D,C,B,,A,, | [G,,G,]2 [G,B,D]2 D,,4 | G,,2 [G,B,D]2 [G,B,D]2 [G,B,D]D, | %27
 [G,=B,D]2 [G,B,D]2 [G,B,D]2 [G,B,D]2 | C,E,G,C- C2 G,,2 | [C,,C,]C z [CEG] z [CE^F][CEG] z | %30
 [G,,,G,,][B,DG] z [B,DG] z [B,D^F][B,DG] z | [D,,,D,,]4 [^F,CD]2 [F,CD]2 | %32
 [G,,G,]2 G,,2 F,,2 E,,2 || [D,,D,]2 [D,^F,C]2 [D,F,C]3 A,,, | %34
 [D,,,D,,]2 [D,^F,C]2 [D,F,A,]2 [D,F,C]2 | [G,,G,]2 [D,G,B,]2 [D,G,B,]2 D,D,, | %36
 [G,,,G,,]2 [D,G,B,]2 [D,G,B,]2 [D,G,B,]2 | [D,,D,]2 [D,^F,C]2 [D,F,C]2 [D,F,C]A,,, | %38
 [D,,,D,,]2 [D,^F,C]2 [D,F,A,]2 [D,F,C]2 | [G,,G,]2 [D,G,B,]2 [D,G,B,]2 [D,G,B,]D,, | %40
 [G,,,G,,]2 [D,G,B,]2 [D,G,B,]2 [D,G,B,]2 || [C,,C,]2 [CEG]2 [CE^F]2 [CEG]G,, | %42
 [C,,C,]2 [CEG]2 [CEG]2 [CEG]2 | [G,,,G,,]2 [B,DG]2 [B,D^F]2 [B,DG]D,, | %44
 [G,,,G,,]2 [B,DG]2 [B,DG]2 [B,DG]A,, | [D,,D,]2 [^F,CD]2 [F,CD]2 [F,CD]A,, | %46
 [D,,D,]2 [D,^F,C]2 [D,F,C]2 [D,F,C]2 | [G,,G,]2 z{/D,} E, D,C,B,,A,, | %48
 G,,2 [_A,,,_A,,]2 [G,,,G,,]2 z2 |] %49

